X: 253
T:East Tennessee Blues
M:4/4
L:1/8
K:C
e2f2 ^f2|:"C"gage gage|gage- "C7"edcA|"F"cdcA cdcA|cdc_e- edcA|"C"G2A2 c2d2|
"A7"e^deg- gag2|[1 "D"de^fb- bfa2|"G"g4 e2f2:|[2 "D"edcA "G"c2d2|"C"c6ef|
|:"C"g4 -gag2|e4 -eged|"F"c4 -cdcB|A4 -AcBA|"C"G2A2 c2d2|
"A7"e^deg- gag2|[1 "D"de^fb- bfa2|"G"g4 e2f2:|[2 "D"edcA "G"c2d2|"C"c8||
